X: 3074
T: A' THE WAY TO GALLOWAY
Q:"Reel."
R: Reel.
%R:reel
B: James Kerr "Merry Melodies" v.3 p.10 #74
Z: 2016 John Chambers <jc:trillian.mit.edu>
M: C
L: 1/8
K: Em
|:\
vefge dBBd | cAAc dBBd |\
efge dBBd | cABG E/E/E E2 ::\
BcBA BcdB | ABAG FGAc |\
BcBA Bcde | dBdF E/E/E E2 :|

%%sep 1 1 500
%%sep 1 1 500

